X:44
T: Rache im Zweikampf
N: Q2097
O: Mitteleuropa, Belgien, Bruessel, flaemisch
N: Flaemische Fassung der Ballade.
N: Vierte und sechste Zeile = Refrain auf sinnfreie Silben.
R: Ballade, Frau in Maennerkleidung, Soldat, Betrug, Rache
M: 3/8
L: 1/8
K: D
A, | DFA | A2A | BA^G | A3
AFG | AFA | BA^G | A2
D | E2F | GEE | F2A | AB
A | AGF | F3 | E2
D | E2F | GEG | FAF | DE
F | GEC | D2

